X:1
T:Lily Queen
T:“LILY QUEEN.”
T:A Ragtime Two-Step.
T:By SCOTT JOPLIN and ARTHUR MARSHALL.
T:Copyright 1907, by Willis Woodward.
T:Copyright 1907, by Willis Woodward.
T:Copyright 1907, by Willis Woodward.
T:Copyright 1907, by Willis Woodward.
C:Joplin
Z:Copyright 1907, by Willis Woodward.
%%score { ( 1 3 ) | 2 }
L:1/8
Q:1/4=95
M:2/4
K:C
V:1 treble nm="Piano" snm="Pno."
V:3 treble 
V:2 bass 
V:1
"^Moderato."!mf!"^NOTE: Do not play this piece fast.\nIt is never right to play \"Ragtime\" fast. Composers." (G/e/c/G/-) (G/E/C) | %1
 FD E2 | [Cc]/[Dd]/[^D^d]/[^F^f]/ [GBg]/[GBe][=FB=d]/ | [EGc] z [cec'][_Bce] |: %4
!mf! [Acf]2 [cfc']2 | [Gceg]2 [Aca]2 | ^f/[Bdg]f/ [Bdg]f/[ceg]/- | %7
 [ceg]([ceg]/^f/) ([ceg]/f/)[cg] | [c=fa]2 [cfc']2 | [Gceg]2 [G^Ae]2 | [GBd]2 [dgb]2 | %11
 [c^f]2 [Bd=g][_Bce] | [Acf]2 [cfc']2 | [Gceg]2 [Aca]2 | ^f/[Bdg]f/ [Bdg]f/[ceg]/- | %15
 [ceg]([ceg]/^f/) [ce][E^G] | [EAc]2 [CFc]2 | [CEc]2 [C^DA]2 |1 [CEG]2 [Gce]>[^Fc]- | %19
 c/e/d [EGc][_Bce] :|2 [CEG]2 [Gce]>[^Fc]- | c/e/d [EGc][Gg]/[Aa]/ |:!f! (B2 ^A2) | %23
 [Bg]/G/A/B/- B/c/d/^d/ | e/G/A/B/ c/[c^d^fb][cdfa]/ | [ceg]2 z/ [Gcg][cgc']/ | %26
 ([FB][F_B][FA][F_A]) | [FG]4 | [G,G]2 [G,G]2 | ([G,G]3 [Gg]) | (B2 ^A2) | [Bg]/G/A/B/- B/c/d/^d/ | %32
 e/G/A/B/ c/ag/ | c2- c/(A/c/f/) | [cfa]2 [cf]2 | [Gce]2 z/ [G^c]3/2 |1 ^F2 =F/FE/- | %37
 [Ec][Gg]/[Gg]/ [Gg][Aa] :|2 ^F2 =F/FE/- | [Ec]3 [_Bce] ||!mf! [Acf]2 [cfc']2 | [Gceg]2 [Aca]2 | %42
 ^f/[Bdg]f/ [Bdg]f/[ceg]/- | [ceg]([ceg]/^f/) ([ceg]/f/)[cg] | [c=fa]2 [cfc']2 | [Gceg]2 [G^Ae]2 | %46
 [GBd]2 [dgb]2 | [c^f]2 [Bd=g][_Bce] | [Acf]2 [cfc']2 | [Gceg]2 [Aca]2 | %50
 ^f/[Bdg]f/ [Bdg]f/[ceg]/- | [ceg]([ceg]/^f/) [ce][E^G] | [EAc]2 [CFc]2 | [CEc]2 [C^DA]2 | %54
 [CEG]2 [Gce]>[^Fc]- | c/e/d [Ec] z |:[K:F]!p! ([cf]2 ^d2) | e2 z/ c/B | [Af]c=B_B | %59
 A^G=G!^![EBc] | ([cf]2 ^d2) | e2 z c | c2 [G=Be]/[FBd][EGc]/- | [EGc]4 | ([cf]2 ^d2) | %65
 e2 z/ c/d/e/ | [_ef]2 e>d- | d4 | [c^fa]2 [cd]2 | d2 [Bd][Bf] |1 [cfa]2 [cea]/[Beg][Acf]/- | %71
 [Acf]c/c/ [ce]2 :|2 [cfa]2 [cea]/[Beg][Acf]/- |!<(! [Acf]2 [cgb]2!<)! |: %74
!mf!{g^g} a/d'/[ac']{=g^g} a/d'/[ac']/[fac']/- | [fac']2 [_eac']2 | %76
{c^c} d/g/[df]{=c^c} d/g/[df]/[=cf]/- | [cf]2 [cgb]2 |{g^g} a/d'/[ac']{=g^g} a/d'/[ac']/[fac']/- | %79
 [fac']2- [fac']/[cc'][dd']/ | [ea]>[d^g]- [dgc'][eg=b] | [cea][c^da] [ce_b]2 | %82
{g^g} a/d'/[ac']{=g^g} a/d'/[ac']/[fac']/- | [fac']2 [_eac']2 | %84
{c^c} d/g/[df]{=c^c} d/g/[df]/[=cf]/- | [cf]2- [cf]/[cc'][^c^c']/ | [dad'][cac']- [cac'][d^fa] | %87
 (d2 [cea])[Bfg] |1 [cfa]2 [cea]/[Beg][Acf]/- | [Acf]2 [cgb]2 :|2 [cfa]2 [cea]/[Beg][Acf]/- | %91
 [Acf]2"_Fine." [fac'f'] z |] %92
V:2
 (G,/E/C/G,/-) (G,/E,/C,) | (A,_A, G,2) | (([A,,A,]2 [G,,G,]2)) | [C,C] z [C,,C,][C,C] |: %4
 [F,,F,][A,CF] [A,,A,][_A,,_A,] | [G,,G,][G,CE] [E,E][_E,_E] | [D,D][G,B,F] [G,,G,][G,B,F] | %7
 [C,C][C,,C,] [D,,D,][E,,E,] | [F,,F,][A,CF] [A,,A,][_A,,_A,] | [G,,G,][G,CE] [^C,,^C,]2 | %10
 [D,,D,][G,B,D] [G,,G,][G,B,D] | [D,,D,][^F,CD] [G,,G,][C,C] | [F,,F,][A,CF] [A,,A,][_A,,_A,] | %13
 [G,,G,][G,CE] [E,E][_E,_E] | [D,D][G,B,F] [G,,G,][G,B,F] | [E,E][D,D] [C,C][B,,B,] | %16
 [A,,A,]2 [_A,,_A,]2 | [G,,G,]2 [^F,,^F,]2 |1 [G,,G,]G, [C,C][G,CE] | %19
 [A,,A,][G,,G,] [C,C][C,,C,] :|2 [G,,G,]G, [C,C][G,CE] | [A,,A,][G,,G,] [C,C] z |: %22
 [D,D][G,B,F] [^C,^C][G,^A,E] | [D,D][G,B,F] [G,,G,][G,B,F] | [C,C][G,CE] (([E,,E,][^D,,^D,])) | %25
 [E,,E,][G,CE] [E,E][_E,_E] | (([D,D]2 [C,C]2)) | [B,,B,][F,,F,] [E,,E,][D,,D,] | %28
 ([C,,C,]2 [^C,,^C,]2) | ([D,,D,]2 G,,2) | [D,D][G,B,F] [^C,^C][G,^A,E] | %31
 [D,D][G,B,F] [G,,G,][G,B,F] | [C,C][G,CE] [_B,,_B,][G,CE] | [A,,A,][A,CF][A,CF] z | %34
 [F,,F,][A,CF] [_A,,_A,][A,CF] | [G,,G,][G,CE] [A,,A,][G,A,^C] |1 %36
 [D,,D,][^F,A,C] [G,,G,][=F,G,B,] | [C,C] z z2 :|2 [D,,D,][^F,A,C] [G,,G,][=F,G,B,] | %39
 [C,C][G,,G,][C,,C,][C,C] || [F,,F,][A,CF] [A,,A,][_A,,_A,] | [G,,G,][G,CE] [E,E][_E,_E] | %42
 [D,D][G,B,F] [G,,G,][G,B,F] | [C,C][C,,C,] [D,,D,][E,,E,] | [F,,F,][A,CF] [A,,A,][_A,,_A,] | %45
 [G,,G,][G,CE] [^C,,^C,]2 | [D,,D,][G,B,D] [G,,G,][G,B,D] | [D,,D,][^F,CD] [G,,G,][C,C] | %48
 [F,,F,][A,CF] [A,,A,][_A,,_A,] | [G,,G,][G,CE] [E,E][_E,_E] | [D,D][G,B,F] [G,,G,][G,B,F] | %51
 [E,E][D,D] [C,C][B,,B,] | [A,,A,]2 [_A,,_A,]2 | [G,,G,]2 [^F,,^F,]2 | [G,,G,]G, [C,C][G,CE] | %55
 [A,,A,][G,,G,] [C,C] z |:[K:F] [F,,F,][A,CF] [^F,,^F,][A,C^D] | [G,,G,][B,CE] [C,,C,][B,CE] | %58
 [F,,F,]_ED_D | C=B,_B,!^![C,,C,] | [F,,F,][A,CF] [^F,,^F,][A,C^D] | [G,,G,][G,CE] [G,CE]2 | %62
 [E,,E,][G,CE] [G,,G,][G,=B,] | [C,C][_B,,_B,][A,,A,][G,,G,] | [F,,F,][A,CF] [^F,,^F,][A,C^D] | %65
 [G,,G,][B,CE] [C,,C,][G,B,CE] | [F,,F,][F,A,C_E] [A,,A,][F,A,CE] | %67
 [B,,B,][F,,F,] [E,,E,][_E,,_E,] | [D,,D,][^F,CD] [D,D][C,C] | [B,,B,][G,B,D] [D,,D,][_D,,_D,] |1 %70
 [C,,C,][A,CF] [C,,C,][B,CE] | [F,,F,] z [C,B,]2 :|2 [C,,C,][A,CF] [C,,C,][B,CE] | %73
 [F,,F,][C,,C,][D,,D,][E,,E,] |: [F,,F,][A,CF] [C,,C,][A,CF] | [F,,F,][F,,F,] [G,,G,][A,,A,] | %76
 [B,,B,][B,DF] [G,,G,][^G,,^G,] | [A,,A,][C,,C,] [D,,D,][E,,E,] | [F,,F,][A,CF] [C,,C,][A,CF] | %79
 [F,,F,][A,CF] [A,,A,][F,,F,] | [E,,E,][A,CE] [E,,E,][^G,DE] | [A,,A,][^F,,^F,] [G,,G,][C,,C,] | %82
 [F,,F,][A,CF] [C,,C,][A,CF] | [F,,F,][F,,F,] [G,,G,][A,,A,] | [B,,B,][B,DF] [G,,G,][^G,,^G,] | %85
 [A,,A,][A,CF] [A,,A,][G,,G,] | [^F,,^F,][F,CD] [D,D][C,C] | [B,,B,][G,B,D] [D,,D,][_D,,_D,] |1 %88
 [C,,C,][A,CF] [C,,C,][B,CE] | [F,,F,][C,,C,][D,,D,][E,,E,] :|2 [C,,C,][A,CF] [C,,C,][B,CE] | %91
 [F,,F,]C,F,, z |] %92
V:3
 x4 | (F/c/D/F/) (E<c) | (F3/2 c/) x2 | x4 |: x4 | x4 | x4 | x4 | x4 | x4 | x4 | (a/^g/a/b/) x2 | %12
 x4 | x4 | x4 | x2 g(d/e/) | x4 | x4 |1 x4 | F[=FB] x2 :|2 x4 | F[=FB] x2 |: (f/ba/) (e/=ag/) | %23
 x4 | x4 | x4 | x4 | x4 | z [CE] z [^A,E] | z [B,F]/[B,F]/ [B,F] z | (f/ba/) (e/=ag/) | x4 | x4 | %33
 x4 | x4 | x5/2 fe/ |1 (=cA) c/[Bd]c/- | x4 :|2 =cA c/[Bd]c/- | x4 || x4 | x4 | x4 | x4 | x4 | x4 | %46
 x4 | (a/^g/a/b/) x2 | x4 | x4 | x4 | x2 g(d/e/) | x4 | x4 | x4 | F[=FB] x2 |: %56
[K:F] a(a/^g/) a(a/_a/) | (g<c') x/ (c/d/e/) | x4 | x4 | a(a/^g/) a(a/=b/) | (c'<g) x (e/f/) | %62
 (g<a) x2 | x4 | a(a/^g/) a(a/_a/) | (g<c') x/ (c/d/e/) | x2 g/af/- | f4 | x4 | (g/a/b/g/) ag |1 %70
 x4 | x c/c/ (g^g) :|2 x4 | x4 |: x4 | x4 | x4 | x4 | x4 | x4 | e'/c'/a/c'/- x2 | x4 | x4 | x4 | %84
 x4 | x4 | x4 | g/a/b/g/ x2 |1 x4 | x4 :|2 x4 | x4 |] %92

